!!! OTL: Berkowitz429
!!! Chapter: 1
!!! Section: IV
!!! Page: 107
!!! Mode: 
!!! Encoder: DJB
**kern
*staff1
*I"Piano
=1-
*clefG2
*k[b-e-a-d-g-]
*D-:
*M3/4
8r
8a-/
8gn/L
8a-/J
8b-/L
8a-/J
=2
2dd-\
4a-/
=3
4r
4f/
8g-/L
8a-/J
=4
2cc\
4b-\
=5
4r
4e-/
8f/L
8g-/J
=6
2b-\
4a-/
=7
2a-/
4g-/
=8
4g-/
4en/
4f/
=9
8r
8f/
8an\L
8cc\J
8ee-\L
8dd-\J
=10
2cc\
4b-\
=11
!!linebreak:original
8r
8e-/
8gn/L
8b-/J
8dd-\L
8cc\J
=12
2b-\
4a-/
=13
4r
4.gn/
8a-/
=14
4dd-\
4a-/
4f/
=15
4e-/
2b--\
=16
4.a-/
8g-/
8e-/L
8f/J
=17
4d-/
2r
==
*-
